lib/svgs/git-issue.svg

<?xml version="1.0" encoding="UTF-8" standalone="no"?>
<svg width="20px" height="20px" viewBox="0 0 20 20" version="1.1" xmlns="http://www.w3.org/2000/svg" xmlns:xlink="http://www.w3.org/1999/xlink">
    <defs></defs>
    <g id="Icons" stroke="none" stroke-width="1" fill="none" fill-rule="evenodd">
        <g id="Web" transform="translate(-49.000000, -1758.000000)" fill="#000000">
            <g id="git/git-issue" transform="translate(49.000000, 1758.000000)">
                <path d="M10,2 C5.59376,2 2,5.59376 2,10 C2,14.40624 5.59376,18 10,18 C14.40624,18 18,14.40624 18,10 C18,5.59376 14.40624,2 10,2 L10,2 L10,2 L10,2 M10,16.28128 C6.5312,16.28128 3.71872,13.4688 3.71872,10 C3.71872,6.5312 6.5312,3.71872 10,3.71872 C13.4688,3.71872 16.28128,6.5312 16.28128,10 C16.28128,13.4688 13.4688,16.28128 10,16.28128 L10,16.28128 L10,16.28128 L10,16.28128 M8.84368,14.56256 L11.15632,14.56256 L11.15632,12.28128 L8.84368,12.28128 L8.84368,14.56256 L8.84368,14.56256 L8.84368,14.56256 M8.84368,11.15632 L11.15632,11.15632 L11.15632,5.43744 L8.84368,5.43744 L8.84368,11.15632 L8.84368,11.15632 L8.84368,11.15632" id="Shape"></path>
            </g>
        </g>
    </g>
</svg>

<svg xmlns="http://www.w3.org/2000/svg" viewBox="0 0 20 20">
    <path fill="#000" fill-rule="evenodd" d="M10 2c-4.406 0-8 3.594-8 8 0 4.406 3.594 8 8 8 4.406 0 8-3.594 8-8 0-4.406-3.594-8-8-8m0 14.281a6.282 6.282 0 1 1 0-12.563 6.282 6.282 0 0 1 0 12.563m-1.156-1.718h2.312V12.28H8.844v2.282m0-3.407h2.312V5.437H8.844v5.72"/>
</svg>
